src/SVG/musica_tmoviles.svg

<?xml version="1.0" encoding="UTF-8" standalone="no"?>
<!-- Generator: Adobe Illustrator 15.0.0, SVG Export Plug-In . SVG Version: 6.00 Build 0)  -->

<svg
   xmlns:dc="http://purl.org/dc/elements/1.1/"
   xmlns:cc="http://creativecommons.org/ns#"
   xmlns:rdf="http://www.w3.org/1999/02/22-rdf-syntax-ns#"
   xmlns:svg="http://www.w3.org/2000/svg"
   xmlns="http://www.w3.org/2000/svg"
   xmlns:sodipodi="http://sodipodi.sourceforge.net/DTD/sodipodi-0.dtd"
   xmlns:inkscape="http://www.inkscape.org/namespaces/inkscape"
   version="1.1"
   id="Layer_1"
   x="0px"
   y="0px"
   width="240.248"
   height="224.13699"
   viewBox="0 0 240.248 224.13699"
   enable-background="new 0 0 612 792"
   xml:space="preserve"
   inkscape:version="0.48.3.1 r9886"
   sodipodi:docname="musica_tmoviles.svg"><metadata
   id="metadata3013"><rdf:RDF><cc:Work
       rdf:about=""><dc:format>image/svg+xml</dc:format><dc:type
         rdf:resource="http://purl.org/dc/dcmitype/StillImage" /></cc:Work></rdf:RDF></metadata><defs
   id="defs3011" /><sodipodi:namedview
   pagecolor="#ffffff"
   bordercolor="#666666"
   borderopacity="1"
   objecttolerance="10"
   gridtolerance="10"
   guidetolerance="10"
   inkscape:pageopacity="0"
   inkscape:pageshadow="2"
   inkscape:window-width="640"
   inkscape:window-height="480"
   id="namedview3009"
   showgrid="false"
   fit-margin-top="0"
   fit-margin-left="0"
   fit-margin-right="0"
   fit-margin-bottom="0"
   inkscape:zoom="0.2979798"
   inkscape:cx="120.124"
   inkscape:cy="112.069"
   inkscape:window-x="0"
   inkscape:window-y="27"
   inkscape:window-maximized="0"
   inkscape:current-layer="Layer_1" />
<g
   id="g2997"
   transform="translate(-185.876,-283.932)">
	<path
   d="M 264.296,487.888 V 431.16 h -56.722 l -0.013,56.728 h 56.735 z m -43.615,-43.604 h 30.496 v 30.484 h -30.496 v -30.484 z"
   id="path2999"
   inkscape:connector-curvature="0"
   style="fill:#6d8d24" />
	<polygon
   points="243.12,452.33 228.739,452.336 228.739,466.723 243.131,466.723 "
   id="polygon3001"
   style="fill:#6d8d24" />
	<path
   d="m 426.123,410.984 h -82.57 V 283.932 H 185.876 v 224.137 h 1.517 14.514 82.57 v -97.084 h -82.57 V 299.969 h 125.615 v 208.1 h 1.518 14.514 82.57 v -97.085 z m -154.764,13.113 v 70.854 h -69.452 v -70.848 l 69.452,-0.006 z m 141.647,70.853 h -69.453 v -70.848 l 69.453,-0.006 v 70.854 z"
   id="path3003"
   inkscape:connector-curvature="0"
   style="fill:#6d8d24" />
	<path
   d="M 405.941,487.888 V 431.16 H 349.22 l -0.012,56.728 h 56.733 z M 362.34,444.284 h 30.484 v 30.484 H 362.34 v -30.484 z"
   id="path3005"
   inkscape:connector-curvature="0"
   style="fill:#6d8d24" />
	<polygon
   points="384.766,452.33 370.385,452.336 370.385,466.723 384.777,466.723 "
   id="polygon3007"
   style="fill:#6d8d24" />
</g>
</svg>

<?xml version="1.0" encoding="utf-8"?>
<!-- Generator: Adobe Illustrator 15.0.0, SVG Export Plug-In . SVG Version: 6.00 Build 0)  -->
<!DOCTYPE svg PUBLIC "-//W3C//DTD SVG 1.1//EN" "http://www.w3.org/Graphics/SVG/1.1/DTD/svg11.dtd">
<svg version="1.1" id="Layer_1" xmlns="http://www.w3.org/2000/svg" xmlns:xlink="http://www.w3.org/1999/xlink" x="0px" y="0px"
	 width="612px" height="792px" viewBox="0 0 612 792" enable-background="new 0 0 612 792" xml:space="preserve">
<g>
	<path fill="#6D8D24" d="M264.296,487.888V431.16h-56.722l-0.013,56.728H264.296z M220.681,444.284h30.496v30.484h-30.496V444.284z"
		/>
	<polygon fill="#6D8D24" points="228.739,452.336 228.739,466.723 243.131,466.723 243.12,452.33 	"/>
	<path fill="#6D8D24" d="M426.123,410.984h-82.57V283.932H185.876v224.137h1.517h14.514h82.57v-97.084h-82.57V299.969h125.615v208.1
		h1.518h14.514h82.57V410.984z M271.359,424.097v70.854h-69.452v-70.848L271.359,424.097z M413.006,494.95h-69.453v-70.848
		l69.453-0.006V494.95z"/>
	<path fill="#6D8D24" d="M405.941,487.888V431.16h-56.721l-0.012,56.728H405.941z M362.34,444.284h30.484v30.484H362.34V444.284z"/>
	<polygon fill="#6D8D24" points="370.385,452.336 370.385,466.723 384.777,466.723 384.766,452.33 	"/>
</g>
</svg>
